X:1
T:Der Glückliche
T:Felix Mendelssohn Bartholdy
T:Joseph von Eichendorff
T:Der Glückliche
T:Op. 88,2
T:CPDL - Creative Commons Attribution Non Commercial 3.0
T:CPDL - Creative Commons Attribution Non Commercial 3.0
T:CPDL - Creative Commons Attribution Non Commercial 3.0
T:CPDL - Creative Commons Attribution Non Commercial 3.0
T:CPDL - Creative Commons Attribution Non Commercial 3.0
T:CPDL - Creative Commons Attribution Non Commercial 3.0
T:CPDL - Creative Commons Attribution Non Commercial 3.0
T:CPDL - Creative Commons Attribution Non Commercial 3.0
C:Felix Mendelssohn Bartholdy
Z:Joseph von Eichendorff
Z:CPDL - Creative Commons Attribution Non Commercial 3.0
%%score [ 1 2 3 4 ]
L:1/8
Q:1/4=102
M:6/8
K:G
V:1 treble nm="S"
V:2 treble nm="A"
V:3 treble-8 nm="T"
V:4 bass nm="B"
V:1
!p!"^Allegro" GFG | !>!c2 B B^AB | !>!e2 d dBA |{A} GFG{A} GFG | B2 A A"^cresc."Bc | dBG =fe^d | %6
w: Ich hab' ein|Lieb- chen lieb recht von|Her- zen, hell- fri- sche|Au- * gen hat's wie zwei|Ker- zen, und wo sie|spie- * lend strei- fen das|
 e3!f! ecB |{B} A^GA | =gec | (A6 | (A3) A) z z | z2 z!p! fed | d2 G cB^A | B3 =AGE | DGB dAB | %15
w: Feld, ach, wie so|lus- * tig|glän- zet die|Welt,|_ _|und wo sie|spie- lend strei- fen das|Feld, ach, wie so|lus- * tig glän- zet die|
 G6- | (G6 | G3) cAF | d2 G!f! c[Q:1/4=90]"^rit."AF | !fermata!G3 |!pp![Q:1/4=102]"^tempo" GFG | %21
w: Welt,|_|* ach, wie so|lus- tig glän- zet die|Welt!|Wie in der|
 A2 A A^GA | c2 B B>BB | BGA BGA | B2 G B"^cresc."^AB | ^c3!<(! cBc!<)! | d2 ^c B3 |!f! (f3 f)ed | %28
w: Wald- nacht zwi- schen den|Schlüf- ten plötz- lich die|Tä- * ler son- nig sich|klüf- ten, fun- keln die|Strö- me, _ rauscht|him- mel- wärts|blü- * hen- de|
 !>!d3 (^c2 B) | !>!d3 ^c2 B | !fermata!B3 |!p! FFF | ^EEE ^GFE | ^E3 F2 F | (B3"^cresc." B)^cd | %35
w: Wild- nis _|so ist mein|Herz!|Wie vom Ge-|bir- ge in's Meer _ zu|schau- en, in's|Meer _ _ zu|
 d2 ^c |!p! ^c>cc | ^cAB cAB | ^c2 A AAA | (^c3!<(! c)BA | d3 | F2 G | A3 (A2 B) | c3 c2 ^c | %44
w: schau- en,|wie wenn~ der|See- * falk, hän- gend im|Blau- en, zu- ruft der|däm- * mern- den|Erd',|wo sie|blieb, der _|Erd', wo sie|
 d3!<)!!f! d3 | g3 d3 | B3 A2 G | c3 e3 | d6 |!p! G3 A2 B | (d2 c)"^cresc." B2 A | (f2 e) (^c2 A) | %52
w: blieb? So|un- er-|mess- lich ist|rech- te|Lieb',|so un- er-|mess- * lich ist|rech- * te _|
 (A3 A2)!f! d | g3 d3 | B3 A2 G | =f3 (e2 ^d) | e6 |!p! A3 c2 B | B3 A3 | e3"^cresc." c2 B | %60
w: Lieb', _ so|un- er-|mess- lich ist|rech- te _|Lieb',|so un- er-|mess- lich|ist rech- te|
 (B3 A2)!f! A | (a2 g) (f2 e) | (d2 B) A2 c | G3 F3 | (G3 G2)!f! G | (a2 g) (f2 e) | (d2 B) A2 c | %67
w: Lieb', _ so|un- * er- *|mess- * lich ist|rech- te|Lieb', _ so|un- * er- *|mess- * lich ist|
 G3 (B2 A) | G6- | (G6 | G3) z2!f! G | g3 e3 | !fermata!e3 !fermata!d2!f! G | c3 e3 | d3 g2 d | %75
w: rech- te _|Lieb',|_|* so|un- er-|mess- lich, so|un- er-|mess- lich ist|
 B3 A3 | !fermata!G6 |] %77
w: rech- te|Lieb'!|
V:2
!p! DDD | !>!G2 G GGG | !>!G2 G GDD | D2 D CCC | D2 D F"^cresc."GA | G2 G GG=F | (E3 E) z z | z3 | %8
w: ||||||Feld, _||
 z3 | z2 z!f! EEE | G2 E EEE |!>(! (G3!>)! F3) | G3!p! D2 D | D3 (E2 G) | (D3 C)CC | B,3 GFE | %16
w: |ach wie so|lus- tig glän- zet die|Welt, _|ach, wie so|lus- tig _|glän- * zet die|Welt, und wo sie|
{E} D^CD EDC | (=C3 C2) C | B,2 D!f! DDD | !fermata!D3 |!pp! DDD | ^D2 D EEE | F2 F ^D>DD | %23
w: spie- * lend strei- fen das|Feld, _ wie|lu- stig glän- zet die|Welt,||||
 E2 F GEF | G2 E G"^cresc."GG | G3!<(! G2 G!<)! | F2 F F3 |!f! F3 ^A2 B | !>!B3 F3 | !>!B3 ^A2 F | %30
w: |||||||
 !fermata!F3 |!p! DDD | DDD ^C2 C | ^C3 C2 C | ^E3"^cresc." F3 | ^G2 G |!p! ^G>GG | F2 ^G AFG | %38
w: ||||Meer zu|schau- en,|||
 A2 F FFF | =G3!<(! G2 G | F3 | D2 D | F3 (F2 G) | A3 A2 G | F3!<)!!f! F3 | G3 G3 | G3 G2 G | %47
w: |||||||||
 G3 F3 | G6 |!p! G3 G2 G | G3"^cresc." G2 G | G3 G3 | (F3 F2)!f! F | G3 G3 | =F3 F2 F | %55
w: ||||||||
 (=F3 F2) F | E6 |!p! A3 ^G2 G | ^G3 A3 | A3"^cresc." ^G2 G | (^G3 A3-) | A3!f! A3 | %62
w: rech- * te|Lieb',||||Lieb', _|_ ist|
 (B2 G) (G2 E) | D3 D3 | (^C3 C2)!f! G | G3 D3 | (D2 ^D) E2 E | G3 F3 | G6- | (G6 | G3) z2!f! G | %71
w: rech- * te, _|rech- te||||||||
 e3 c3 | !fermata!c3 !fermata!B2!f! G | G3 G3 | G3 B2 G | G3 F3 | !fermata!D6 |] %77
w: ||||||
V:3
!p! B^AB | !>!e2 d d^cd | !>!=c2 B BGA | B2 B cGG | G2 F d"^cresc."dd | d2 d dcB | (c3 c) z z | %7
w: Ich hab' ein|Lieb- chen lieb recht von|Her- zen, hell- fri- sche|Au- gen hat's wie zwei|Ker- zen, und wo sie|spie- lend strei- fen das|Feld, _|
 z3 | z3 | z2 z!f! ecB |{B} A^GA =ge^c |!>(! (A3!>)! d3-) | d3!p! A2 c | B3 (G2 A) | (B3 F)FF | %15
w: ||ach, wie so|lus- * tig glän- zet die|Welt, _|_ wie so|lus- tig _|glän- * zet die|
 G3 edc |{c} B^AB cBA | (=A3 A2) A | G2 B!f! Acc | !fermata!B3 |!pp! BBB | c2 c cBc | A2 A A>AA | %23
w: Welt, und wo sie|spie- * lend strei- fen das|Feld, _ wie|lus- tig glän- zet die|Welt,|Wie in der|Wald- nacht zwi- schen den|Schlüf- ten plötz- lich die|
 GBA GBA | G2 B B"^cresc."BB | B3!<(! B2 B!<)! | B2 e d3 |!f! d3 ^c2 B | !>!f3 (e2 d) | %29
w: Tä- * ler son- nig sich|klüf- ten, fun- keln die|Strö- me, rauscht|him- mel- wärts|blü- hen- de|Wild- nis _|
 !>!f3 e2 d | !fermata!d3 |!p! BBB | BBB B2 B | A3 A2 A | (d3"^cresc." d)^cB | B2 B |!p! B>BB | %37
w: so ist mein|Herz!|Wie vom Ge-|bir- ge in's Meer zu|schau- en, in's|Meer _ _ zu|schau- en,|wie wenn der|
 A^cB AcB | A2 ^c ccc | A3!<(! A2 A | A3 | =c2 B | A3 (c2 B) | A3 c2 _B | A3!<)!!f! c3 | =B3 B3 | %46
w: See- * falk, hän- gend im|Blau- en, zu- ruft der|däm- mern- den|Erd',|wo sie|blieb, der _|Erd', wo sie|blieb? So|un- er-|
 d3 c2 B | e3 c3 | B6 |!p! B3 c2 d | c3"^cresc." d2 e | A3 A3 | A3!f! =c3 | B3 B3 | d3 c2 B | %55
w: mess- lich ist|rech- te|Lieb',|so un- er-|mess- lich ist|rech- te|Lieb', so|un- er-|mess- lich ist|
 d3 (c2 B) | c6 |!p! e3 =f2 f | =f3 e3 | e3"^cresc." =f2 f | (=f3 e3-) | (e3 d2)!f! ^f | %62
w: rech- te _|Lieb',|so un- er-|mess- lich|ist rech- te|Lieb', _|_ _ ist|
 g3 (e2 c) | B3 A3 | (G3 G2)!f! ^c | ^c3 =c3 | B3 e2 c | B3 (d2 c) | (B3 B2)!f! G | g3 e3 | e3 d3 | %71
w: rech- te _|rech- te|Lieb', _ so|un- er-|mess- lich ist|rech- te _|Lieb', _ so|un- er-|mess- lich,|
 z6 | !fermata!z3 !fermata!z2!f! g | g3 A3 | B3 d2 B | d3 c3 | !fermata!B6 |] %77
w: |so|un- er-|mess- lich ist|rech- te|Lieb'!|
V:4
!p! G,G,G, | !>!G,2 G, G,G,G, | !>!G,2 G, G,G,F, | E,2 E, E,E,E, | D,2 D, C"^cresc."CC | %5
w: |||||
 B,2 B, G,G,G, | (C3 C) z z | z3 | z3 | z2 z!f! C,C,C, | ^C,2 C, ^CCC |!>(! (^C3!>)! =C3) | %12
w: ||||||Welt, _|
 B,3!p! F,2 F, | G,3 ^C,3 | (D,3 D,)D,D, | (G,,3 G,,) z z | z6 | z2 z G,G,G, | G,2 G,!f! G,G,G, | %19
w: ach, * *|||||ach, wie so||
 !fermata!G,3 |!pp! G,G,G, | F,2 F, E,E,E, | ^D,2 D, B,,>B,,B,, | E,G,F, E,G,F, | %24
w: |||||
 E,2 G, E,"^cresc."E,E, | E,3!<(! E,2 E,!<)! | F,2 F, F,3 |!f! F,3 F,2 F, | !>!F,3 F,3 | %29
w: |||||
 !>!F,3 F,2 F, | !fermata!B,3 | z3 | z6 | z2 z!p! A,A,A, | ^G,G,G,"^cresc." F,2 F, | ^E,2 E, | %36
w: ||||Wie vom Ge-|bir- ge in's Meer zu|schau- en,|
!p! ^E,>E,E, | F,A,^G, F,A,G, | F,2 A, F,F,F, | =E,3!<(! E,2 E, | D,3 | D,2 D, | D,6- | (D,6 | %44
w: ||||||blieb?|_|
 D,3)!<)!!f! D,3 | G,,3 G,,3 | G,3 G,2 G, | G,3 G,3 | G,6 |!p! (G,3 F,2) =F, | %50
w: |||||un- * er-|
 E,3"^cresc." D,2 ^C, | ^C,3 C,3 | (D,3 D,2)!f! D, | G,,3 G,,3 | G,3 G,2 G, | G,3 G,3 | C,6 | %57
w: mess- lich ist|rech- te|Lieb', _ so|||rech- te|Lieb',|
!p! C3 D2 D | D3 C3 | C3"^cresc." D2 D | (D3 ^C3-) | C3!f! =C3 | B,3 C3 | D,3 D,3 | %64
w: |||Lieb', _|_ ist|rech- te,|rech- te|
 (E,3 E,2)!f! E, | E,3 F,3 | G,3 C,2 C, | D,3 D,3 | (G,3 G,2) G, | E3 C3 | C3 B,3 | z6 | %72
w: Lieb', _ _|_ _|||||||
 !fermata!z3 !fermata!z2!f! G, | E,3 C,3 | D,3 D,2 D, | D,3 D,3 | !fermata![G,,G,]6 |] %77
w: |||||

